X: 19
T:Roving Blade (199), The
M:9/8
L:1/8
S:Rice-Walsh manuscript
K:A
e3 edc edc|e3 edc a2 f|e3 edc edc|f2 B B2 f a2 f:|
|:e2 A A2 c cBA|e2 A Ace a2 f|e2 c c2 B cde|f2 B B2 f a2 f:||

